!!!!SEGMENT: pl-sa--230-a-vi-34--009_luna-georgius--litania-rosa-mistica.krn
!!!cenid: 17xx:503
!!!COM: Luna, Georgius
!!!COM-rismID: pe41010079
!!!CDT:
!!!CNT:
!!!OPR: Litania
!!!OTL: Rosa mistica
!!!OMV: 009
!!!PDT:
!!!AGN: Sacred; Mass
!!!SMS-siglum: PL-SA
!!!SMS-shelfmark: 230/A VI 34
!!!SMS-shelfwork: 001-009 M
!!!SMS-variant: Violino 1mo: PL-SA 230/A VI 34:10-11
!!!SMS-altvar: Violino 1mo: PL-SA 230/A VI 34:31
!!!NIFC-rismSourceID: 1001070084
!!!NIFC-rismChildID: 1001070084
!!!NIFC-islandoraID: none
!!!URL-pdf-islandora:
!!!URL-scan: https://bc.bdsandomierz.pl/dlibra/publication/1606/edition/1574/content @EN{Scan in the Sandomierz Diocese Digital Library} @PL{Skany w portalu Cyfrowa Biblioteka Diecezjalna w Sandomierzu}
!!!ONB-nifc: UWAGA: części Litanii: Simphonia, Kirie, Pater de caelis, Sancta Maria, Mater Christi, Mater amabilis, Virgo prudentissima, Speculum, Rosa mistica, Salus infirmorum, Regina angelorum, Agnus Dei
!!!AIN: 3 empty 1 tenor 2 violn 1 vox
!!!key:
**kern	**dynam	**kern	**kern	**dynam	**kern	**kern	**text	**kern	**kern	**dynam
*part7	*part7	*part6	*part5	*part5	*part4	*part3	*part3	*part2	*part1	*part1
*staff7	*	*staff6	*staff5	*	*staff4	*staff3	*staff3	*staff2	*staff1	*
*Iempty	*	*Ivioln	*Ivioln	*	*Itenor	*Ivox	*	*Iempty	*Iempty	*
*I"Fundamenti	*	*I"Violino 2do.	*I"Violino 1mo.	*	*I"Tenore	*I"Canto	*	*I"Clarino 2do ex C	*I"Clarino 1mo ex C	*
*I'bc	*	*I'vl 2	*I'vl 1	*	*I'T	*I'S	*	*I'clno 2 ex C	*I'clno 1 in C	*
*group4	*	*group3	*group3	*	*group2	*group2	*	*group1	*group1	*
*clefF4	*	*clefG2	*clefG2	*	*clefC4	*clefC1	*	*clefG2	*clefG2	*
*	*	*	*	*	*	*	*	*	*ITrd4c7	*
*k[b-]	*	*k[b-]	*k[b-]	*	*k[b-]	*k[b-]	*	*k[b-]	*k[b-]	*
*F:	*	*F:	*F:	*	*F:	*F:	*	*F:	*F:	*
*M4/4	*	*M4/4	*M4/4	*	*M4/4	*M4/4	*	*M4/4	*M4/4	*
*met(c)	*	*met(c)	*met(c)	*	*met(c)	*met(c)	*	*met(c)	*met(c)	*
=1	=1	=1	=1	=1	=1	=1	=1	=1	=1	=1
!	!	!	!	!	!	!	!	!	!LO:TX:a:t=UWAGA:instrument transponujący (cor in F) zapisany jako część partii clno 1 in C	!
!LO:TX:b:t=Rosa mistica	!	!	!LO:TX:b:t=Rosa	!	!	!LO:TX:a:t=P:Solo:problem	!	!LO:TX:a:t=P:problem=przekreślone kreski taktowe	!LO:TX:b:t=Rosa mistica	!
!LO:TX:a:t=Solo	!	!LO:TX:a:t=P:problem=metrum z kropką	!LO:TX:a:t=Oboa solo	!	!	!LO:TX:a:t=P:problem=brak klucza na całej stronie	!	!LO:TX:a:t=Rosa \nTacet	!LO:TX:a:t=Cornu ex, F, Solo	!
!LO:TX:a:t=P:problem=metrum z kropką	!	!LO:TX:a:t=Tacet	!LO:TX:a:t=P:problem=metrum z kropką	!	!LO:TX:a:t=Rosa Tacet	!LO:TX:a:t=P:problem=metrum z kropką	!	!LO:TX:a:t=P:problem=metrum z kropką	!LO:TX:a:t=P:problem=metrum z kropką	!
!LO:TX:a:t=P:problem=4\ right	!	!	!	!	!	!	!	!	!LO:TX:a:t=P:problem=8\ right	!
4F\	.	1ryy	1r	.	1ryy	00r	.	1ryy	8f\L	.
.	.	.	.	.	.	.	.	.	8c\J	.
!	!	!	!	!	!	!	!	!	!LO:TX:a:t=P:problem=16\ right	!
8r	.	.	.	.	.	.	.	.	16f`\LL	.
.	.	.	.	.	.	.	.	.	(16a\	.
!LO:TX:a:t=P:problem=8\ right	!	!	!	!	!	!	!	!	!	!
8F\	.	.	.	.	.	.	.	.	16g\	.
.	.	.	.	.	.	.	.	.	16f\JJ)	.
4C/	.	.	.	.	.	.	.	.	8g\L	.
.	.	.	.	.	.	.	.	.	8c\J	.
8r	.	.	.	.	.	.	.	.	16g`\LL	.
.	.	.	.	.	.	.	.	.	(16b-\	.
8C/	.	.	.	.	.	.	.	.	16a\	.
.	.	.	.	.	.	.	.	.	16g\JJ)	.
=2	=2	=2	=2	=2	=2	=2	=2	=2	=2	=2
!	!	!	!LO:TX:a:t=P:problem=8\ right	!	!	!	!	!	!	!
4F\	.	1ryy	8ff\L	.	1ryy	.	.	1ryy	8a\L	.
.	.	.	8cc\J	.	.	.	.	.	8f\J	.
!	!	!	!LO:TX:a:t=P:problem=16\ right	!	!	!	!	!	!	!
8r	.	.	16ff`\LL	.	.	.	.	.	16a`\LL	.
.	.	.	(16aa\	.	.	.	.	.	(16cc\	.
8F\	.	.	16gg\	.	.	.	.	.	16b-\	.
.	.	.	16ff\JJ)	.	.	.	.	.	16a\JJ)	.
4C/	.	.	8gg\L	.	.	.	.	.	8b-\L	.
.	.	.	8cc\J	.	.	.	.	.	8g\J	.
8r	.	.	16gg`\LL	.	.	.	.	.	16b-`\LL	.
.	.	.	(16bb-\	.	.	.	.	.	(16dd\	.
8C/	.	.	16aa\	.	.	.	.	.	16cc\	.
.	.	.	16gg\JJ)	.	.	.	.	.	16b-\JJ)	.
=3	=3	=3	=3	=3	=3	=3	=3	=3	=3	=3
!	!	!	!LO:TX:a:t=P:problem=4\ right	!	!	!	!	!	!	!
4F\	.	1ryy	4ff\	.	1ryy	.	.	1ryy	16a\LL	.
.	.	.	.	.	.	.	.	.	16f\	.
.	.	.	.	.	.	.	.	.	16g\	.
.	.	.	.	.	.	.	.	.	16a\JJ	.
8A\L	.	.	4r	.	.	.	.	.	16b-\LL	.
.	.	.	.	.	.	.	.	.	16cc\	.
8G\J	.	.	.	.	.	.	.	.	16dd\	.
.	.	.	.	.	.	.	.	.	16ee\JJ	.
4F\	.	.	8r	.	.	.	.	.	8ff`\L	.
.	.	.	(8bb-\L	.	.	.	.	.	(8dd\	.
8r	.	.	8aa\	.	.	.	.	.	8cc\	.
8C/	.	.	8gg\J)	.	.	.	.	.	8b-\J)	.
=4	=4	=4	=4	=4	=4	=4	=4	=4	=4	=4
!	!	!	!LO:TX:a:t=P:problem=mixed beam	!	!	!	!	!	!LO:TX:a:t=P:problem=4\ right	!
8F\L	.	1ryy	16ff\LL	.	1ryy	.	.	1ryy	4a\	.
.	.	.	16f/	.	.	.	.	.	.	.
8F\	.	.	16g/	.	.	.	.	.	.	.
.	.	.	16a/JJ	.	.	.	.	.	.	.
8A\	.	.	16b-\LL	.	.	.	.	.	4r	.
.	.	.	16cc\	.	.	.	.	.	.	.
8G\J	.	.	16dd\	.	.	.	.	.	.	.
.	.	.	16ee\JJ	.	.	.	.	.	.	.
4F\	.	.	8ff\L	.	.	.	.	.	8r	.
.	.	.	(8dd\	.	.	.	.	.	8b-\L	.
8r	.	.	8cc\	.	.	.	.	.	8a\	.
8C/	.	.	8b-\J)	.	.	.	.	.	8g\J	.
=5	=5	=5	=5	=5	=5	=5	=5	=5	=5	=5
.	.	.	8qqb-/	.	.	.	.	.	.	.
8F\L	.	1ryy	4a/	.	1ryy	00r	.	1ryy	4f\	.
!LO:TX:a:t=P:problem=16\ right	!	!	!	!	!	!	!	!	!	!
16F\L	.	.	.	.	.	.	.	.	.	.
16G\JJ	.	.	.	.	.	.	.	.	.	.
8A\L	.	.	8r	.	.	.	.	.	8r	.
*	*	*	*custos:b-	*	*	*	*	*	*	*
8F\J	.	.	8ff\	.	.	.	.	.	8a\	.
!	!	!	!LO:LB:g=original	!	!	!	!	!	!	!
8C/L	.	.	8ee\L	.	.	.	.	.	16g\LL	.
.	.	.	.	.	.	.	.	.	16c\	.
8C/	.	.	8ff\	.	.	.	.	.	16a\	.
.	.	.	.	.	.	.	.	.	16c\JJ	.
8C/	.	.	8gg\	.	.	.	.	.	16b-\LL	.
.	.	.	.	.	.	.	.	.	16c\	.
8C/J	.	.	8ff\J	.	.	.	.	.	16a\	.
.	.	.	.	.	.	.	.	.	16c\JJ	.
!	!	!	!	!	!	!	!	!	!LO:LB:g=original	!
=6	=6	=6	=6	=6	=6	=6	=6	=6	=6	=6
8C/L	.	1ryy	8ee\L	.	1ryy	.	.	1ryy	16g\LL	.
.	.	.	.	.	.	.	.	.	16c\	.
8C/	.	.	8ff\	.	.	.	.	.	16a\	.
.	.	.	.	.	.	.	.	.	16c\JJ	.
8C/	.	.	8gg\	.	.	.	.	.	16b-\LL	.
.	.	.	.	.	.	.	.	.	16c\	.
8C/J	.	.	8ff\J	.	.	.	.	.	16a\	.
.	.	.	.	.	.	.	.	.	16c\JJ	.
8C/L	.	.	8ff\L	.	.	.	.	.	8a\L	.
8C/	.	.	8ee\J	.	.	.	.	.	8g\J	.
8C/	.	.	8r	.	.	.	.	.	8r	.
8C/J	.	.	8aa\	.	.	.	.	.	8f\	.
=7	=7	=7	=7	=7	=7	=7	=7	=7	=7	=7
8C/L	.	1ryy	16gg\LL	.	1ryy	.	.	1ryy	8c\L	.
.	.	.	16cc\	.	.	.	.	.	.	.
8C/	.	.	16aa\	.	.	.	.	.	8f\	.
.	.	.	16cc\JJ	.	.	.	.	.	.	.
8C/	.	.	16bb-\LL	.	.	.	.	.	8g\	.
.	.	.	16cc\	.	.	.	.	.	.	.
8C/J	.	.	16aa\	.	.	.	.	.	8f\J	.
.	.	.	16cc\JJ	.	.	.	.	.	.	.
8C/L	.	.	16gg\LL	.	.	.	.	.	8c\L	.
.	.	.	16cc\	.	.	.	.	.	.	.
*custos:C	*	*	*	*	*	*	*	*	*	*
8C/J	.	.	16aa\	.	.	.	.	.	8f\	.
.	.	.	16cc\JJ	.	.	.	.	.	.	.
!LO:LB:g=original	!	!	!	!	!	!	!	!	!	!
8C/L	.	.	16bb-\LL	.	.	.	.	.	8g\	.
.	.	.	16cc\	.	.	.	.	.	.	.
8C/J	.	.	16aa\	.	.	.	.	.	8f\J	.
.	.	.	16cc\JJ	.	.	.	.	.	.	.
=8	=8	=8	=8	=8	=8	=8	=8	=8	=8	=8
8C\L	.	1ryy	8aa\L	.	1ryy	.	.	1ryy	8f\L	.
8D\	.	.	8gg\J	.	.	.	.	.	8c\J	.
8E\	.	.	8r	.	.	.	.	.	8r	.
8F\J	.	.	8gg\	.	.	.	.	.	8a\	.
!LO:TX:a:t=P:problem=mixed beam	!	!	!	!	!	!	!	!	!	!
8G\L	.	.	4ee\	.	.	.	.	.	16g\LL	.
.	.	.	.	.	.	.	.	.	16bX\	.
8G\	.	.	.	.	.	.	.	.	16dd\	.
.	.	.	.	.	.	.	.	.	16ff\JJ	.
8GG/	.	.	16gg\LL	.	.	.	.	.	16ee\LL	.
.	.	.	16ff\	.	.	.	.	.	16dd\	.
8GG/J	.	.	16ee\	.	.	.	.	.	16cc\	.
.	.	.	16dd\JJ	.	.	.	.	.	16bX\JJ	.
=9	=9	=9	=9	=9	=9	=9	=9	=9	=9	=9
!	!	!	!	!	!	!	!	!	!LO:SIC:s=q8ff#	!
.	.	.	8qqdd/	.	.	.	.	.	8qqb-/	.
8C\L	.	1ryy	4ee\	.	1ryy	00r	.	1ryy	4cc\	.
8D\	.	.	.	.	.	.	.	.	.	.
8E\	.	.	8r	.	.	.	.	.	8r	.
8F\J	.	.	8ff\	.	.	.	.	.	8a\	.
!LO:TX:a:t=P:problem=mixed beam	!	!	!	!	!	!	!	!	!	!
.	.	.	8qqff/	.	.	.	.	.	.	.
8G\L	.	.	4ee\	.	.	.	.	.	16g\LL	.
.	.	.	.	.	.	.	.	.	16bX\	.
8G\	.	.	.	.	.	.	.	.	16dd\	.
.	.	.	.	.	.	.	.	.	16ff\JJ	.
8GG/	.	.	16gg\LL	.	.	.	.	.	16ee\LL	.
.	.	.	16ff\	.	.	.	.	.	16dd\	.
8GG/J	.	.	16ee\	.	.	.	.	.	16cc\	.
.	.	.	16dd\JJ	.	.	.	.	.	16b\JJ	.
=10	=10	=10	=10	=10	=10	=10	=10	=10	=10	=10
!LO:TX:a:t=P:problem=mixed beam	!	!	!	!	!	!	!	!	!LO:SIC:s=q8ff#	!
.	.	.	8qqdd/	.	.	.	.	.	8qqb-/	.
8C/L	.	1ryy	4ee\	.	1ryy	.	.	1ryy	4cc\	.
16c\L	.	.	.	.	.	.	.	.	.	.
16B-\JJ	.	.	.	.	.	.	.	.	.	.
8A\L	.	.	8r	.	.	.	.	.	8r	.
8F\J	.	.	8aa\	.	.	.	.	.	8cc\	.
*	*	*	*Xtuplet	*	*	*	*	*	*Xtuplet	*
!	!	!	!LO:TX:a:t=P:problem=triole nieoznaczone&colon;global	!	!	!	!	!	!LO:TX:a:t=P:problem=triole nieoznaczone&colon;global (wyjątki z komentarzem)	!
8F\L	.	.	24aa\LL	.	.	.	.	.	24cc\LL	.
.	.	.	24gg\	.	.	.	.	.	24b-\	.
.	.	.	24ff\JJ	.	.	.	.	.	24a\JJ	.
8F\	.	.	4aa\	.	.	.	.	.	4ff\	.
8F\	.	.	.	.	.	.	.	.	.	.
8F\J	.	.	8bb-\	.	.	.	.	.	8dd\	.
!	!	!	!LO:LB:g=original	!	!	!	!	!	!LO:LB:g=original	!
=11	=11	=11	=11	=11	=11	=11	=11	=11	=11	=11
!LO:TX:a:t=P:problem=mixed beam	!	!	!	!	!	!	!	!	!	!
8F\L	.	1ryy	24aa\LL	.	1ryy	.	.	1ryy	24cc\LL	.
.	.	.	24gg\	.	.	.	.	.	24b-\	.
.	.	.	24ff\JJ	.	.	.	.	.	24a\JJ	.
8F\	.	.	4aa\	.	.	.	.	.	4ff\	.
8F\	.	.	.	.	.	.	.	.	.	.
8C/J	.	.	8gg\	.	.	.	.	.	8b-\	.
!LO:TX:a:t=P:problem=mixed beam	!	!	!	!	!	!	!	!	!LO:TX:a:t=P:problem=klamra łukowa	!
8F\L	.	.	4ff\	.	.	.	.	.	(24a\LL	.
.	.	.	.	.	.	.	.	.	24cc\	.
.	.	.	.	.	.	.	.	.	24b-\JJ)	.
8AA/	.	.	.	.	.	.	.	.	24a\LL	.
.	.	.	.	.	.	.	.	.	24g\	.
.	.	.	.	.	.	.	.	.	24f\JJ	.
!	!	!	!	!	!	!	!	!	!LO:TX:a:t=P::problem=interpretacja znaku niejasna&colon;dotyczy każdego mordentu	!
8BB-/	.	.	4eem\	.	.	.	.	.	4gM\	.
8C/J	.	.	.	.	.	.	.	.	.	.
=12	=12	=12	=12	=12	=12	=12	=12	=12	=12	=12
!LO:TX:a:t=P:problem=mixed beam	!	!	!	!	!	!	!	!	!	!
8F\L	.	1ryy	8ff\L	.	1ryy	.	.	1ryy	8f\L	.
!	!	!	!	!	!	!	!	!	!LO:TX:a:t=P:problem= dwie ósemki wyglądające jak przednutki	!
8C/	.	.	8gg\	.	.	.	.	.	8b-\	.
8C/	.	.	8gg\	.	.	.	.	.	8b-\	.
8C/J	.	.	8gg\J	.	.	.	.	.	8b-\J	.
8C/L	.	.	8gg\L	.	.	.	.	.	16b-\LL	.
.	.	.	.	.	.	.	.	.	16ee\JJ	.
8C/	.	.	8gg\	.	.	.	.	.	16gg\LL	.
.	.	.	.	.	.	.	.	.	16ff\JJ	.
8C/	.	.	8gg\	.	.	.	.	.	16ee\LL	.
.	.	.	.	.	.	.	.	.	16dd\JJ	.
!	!	!	!	!	!	!	!	!	!LO:TX:a:t=P:problem=klamra łukowa z oznaczeniem	!
*	*	*	*	*	*	*	*	*	*tuplet	*
8C/J	.	.	8gg\J	.	.	.	.	.	(24cc\LL	.
.	.	.	.	.	.	.	.	.	24b-\	.
.	.	.	.	.	.	.	.	.	24a\JJ)	.
=13	=13	=13	=13	=13	=13	=13	=13	=13	=13	=13
.	.	.	.	.	.	.	.	.	8qqa/	.
4C;/	.	1ryy	4gg\	.	1ryy	1r	.	1ryy	4b-;;\	.
8r	.	.	8r	.	.	.	.	.	8r	.
8C/	.	.	8gg\	.	.	.	.	.	8b-\	.
!LO:TX:a:t=P:problem=mixed beam	!	!	!	!	!	!	!	!	!LO:TX:a:t=P:problem=klamra łukowa z oznaczeniem	!
8F\L	.	.	4ff\	.	.	.	.	.	(12a\L	.
.	.	.	.	.	.	.	.	.	12g\	.
8AA/	.	.	.	.	.	.	.	.	.	.
.	.	.	.	.	.	.	.	.	12f\J)	.
8BB-/	.	.	4eem\	.	.	.	.	.	4gM\	.
8C/J	.	.	.	.	.	.	.	.	.	.
!LO:LB:g=original	!	!	!	!	!	!	!	!	!	!
=14	=14	=14	=14	=14	=14	=14	=14	=14	=14	=14
4FF;;/	.	1ryy	4ff\	.	1ryy	4f/	Ro-	1ryy	4f;;\	.
8r	.	.	4r	.	.	16f/LL	.	.	4r	.
.	.	.	.	.	.	16a/JJ	.	.	.	.
!LO:TX:a:t=P:p=pia:problem	!LO:DY:a	!	!	!	!	!	!	!	!	!
8F\	p	.	.	.	.	16g/LL	.	.	.	.
.	.	.	.	.	.	16f/JJ	.	.	.	.
!	!	!	!	!	!	!LO:TX:a:t=P:problem=4\ right	!	!	!LO:TX:a:t=P:problem=podwójna kreska	!
4C/	.	.	2r	.	.	4g\	.	.	2r	.
!	!	!	!	!	!	!LO:TX:a:t=P:problem=16\ right	!	!	!	!
8r	.	.	.	.	.	16g\LL	.	.	.	.
.	.	.	.	.	.	16b-\	.	.	.	.
8C/	.	.	.	.	.	16a\	.	.	.	.
.	.	.	.	.	.	16g\JJ	.	.	.	.
=15||	=15||	=15||	=15||	=15||	=15||	=15||	=15||	=15||	=15||;;	=15||
!	!	!	!LO:TX:a:t=1	!	!	!	!	!	!LO:TX:a:t=1	!
!	!	!	!LO:TX:a:t=P:problem=klamra łukowa	!	!	!	!	!	!LO:TX:a:t=P:problem=klamra łukowa	!
4F\	.	1ryy	1r	.	1ryy	4a\	.	1ryy	8f\L	.
.	.	.	.	.	.	.	.	.	8c\J	.
8r	.	.	.	.	.	16a\LL	.	.	16f`\LL	.
.	.	.	.	.	.	16cc\	.	.	(16a\	.
8F\	.	.	.	.	.	16b-\	.	.	16g\	.
.	.	.	.	.	.	16a\JJ	.	.	16f\JJ)	.
4C/	.	.	.	.	.	4b-\	.	.	8g\L	.
.	.	.	.	.	.	.	.	.	8c\J	.
8r	.	.	.	.	.	16b-\LL	.	.	16g`\LL	.
.	.	.	.	.	.	16dd\	.	.	(16b-\	.
8C/	.	.	.	.	.	16cc\	.	.	16a\	.
.	.	.	.	.	.	16b-\JJ	.	.	16g\JJ)	.
!	!	!	!	!	!	!	!	!	!LO:LB:g=original	!
=16	=16	=16	=16	=16	=16	=16	=16	=16	=16	=16
4F\	.	1ryy	2r	.	1ryy	16cc\LL	.	1ryy	4a\	.
.	.	.	.	.	.	16f\	.	.	.	.
.	.	.	.	.	.	16g\	.	.	.	.
.	.	.	.	.	.	16a\JJ	.	.	.	.
8A\L	.	.	.	.	.	16b-\LL	.	.	4r	.
.	.	.	.	.	.	16cc\	.	.	.	.
8G\J	.	.	.	.	.	16dd\	.	.	.	.
.	.	.	.	.	.	16ee\JJ	.	.	.	.
!	!	!	!	!	!	!LO:TX:a:t=P:problem=8\ right	!	!	!	!
4F\	.	.	8r	.	.	8ff\	-sa	.	2r	.
.	.	.	(8bb-\L	.	.	8dd\	mis-	.	.	.
8r	.	.	8aa\	.	.	8cc\	-ti-	.	.	.
8C/	.	.	8gg\J)	.	.	8b-\	.	.	.	.
!	!	!	!	!	!	!LO:LB:g=original	!	!	!	!
=17	=17	=17	=17	=17	=17	=17	=17	=17	=17	=17
!	!	!	!	!	!	!	!	!	!LO:TX:a:t=1 (z łukiem)	!
8F\L	.	1ryy	4ff\	.	1ryy	16a\	-ca	1ryy	1r	.
.	.	.	.	.	.	16f/LL	o-	.	.	.
8F\	.	.	.	.	.	16g/	.	.	.	.
.	.	.	.	.	.	16a/JJ	.	.	.	.
8A\	.	.	4r	.	.	16b-\LL	.	.	.	.
.	.	.	.	.	.	16cc\	.	.	.	.
8G\J	.	.	.	.	.	16dd\	.	.	.	.
.	.	.	.	.	.	16ee\JJ	.	.	.	.
4F\	.	.	8r	.	.	8ff\	-ra	.	.	.
.	.	.	(8bb-\L	.	.	8dd\	pro	.	.	.
8r	.	.	8aa\	.	.	8cc\L	no-	.	.	.
8C/	.	.	8gg\J)	.	.	8b-\J	.	.	.	.
=18	=18	=18	=18	=18	=18	=18	=18	=18	=18	=18
8F\L	.	1ryy	16ff`\LL	.	1ryy	4a\	-bis	1ryy	16r	.
.	.	.	(16aa\	.	.	.	.	.	(16cc\LL	.
8F\	.	.	16gg\	.	.	.	.	.	16b-\	.
.	.	.	16ff\JJ)	.	.	.	.	.	16a\JJ)	.
8C\	.	.	16gg`\LL	.	.	4r	.	.	16b-`\LL	.
.	.	.	(16gg\	.	.	.	.	.	(16b-\	.
8C\J	.	.	16ff\	.	.	.	.	.	16a\	.
.	.	.	16ee\JJ)	.	.	.	.	.	16g\JJ)	.
8F\L	.	.	8ff\L	.	.	8ff\	Tur-	.	4a\	.
!	!	!	!LO:TX:a:t=P:p=pia:problem	!LO:DY:a	!	!	!	!	!	!
8F\	.	.	8a\	p	.	4cc\	-ris	.	.	.
8F\	.	.	8a\	.	.	.	.	.	4r	.
8F\J	.	.	8b-\J	.	.	8dd\	da-	.	.	.
!	!	!	!LO:LB:g=original	!	!	!	!	!	!	!
=19	=19	=19	=19	=19	=19	=19	=19	=19	=19	=19
!	!	!	!	!	!	!	!	!	!LO:TX:a:t=1 (z łukiem)	!
8F\L	.	1ryy	8b-/L	.	1ryy	16dd\	-vi-	1ryy	1r	.
.	.	.	.	.	.	16b-\	-di-	.	.	.
8F\	.	.	16g/L	.	.	4cc\	-ca	.	.	.
.	.	.	16a/JJ	.	.	.	.	.	.	.
!	!	!	!LO:TX:a:t=P:problem=mixed beam	!	!	!	!	!	!	!
8F\	.	.	8a/L	.	.	.	.	.	.	.
8F\J	.	.	8aa\J	.	.	8ff\	o-	.	.	.
8C/L	.	.	8gg\L	.	.	16ee\LL	-ra	.	.	.
.	.	.	.	.	.	16ff\JJ	.	.	.	.
8C/	.	.	8b-\	.	.	16gg\LL	pro	.	.	.
.	.	.	.	.	.	16ff\JJ	.	.	.	.
8C/	.	.	8b-\	.	.	16ee\LL	no-	.	.	.
.	.	.	.	.	.	16dd\	.	.	.	.
8C/J	.	.	8gg\J	.	.	16cc\	.	.	.	.
.	.	.	.	.	.	16b-\JJ	.	.	.	.
=20	=20	=20	=20	=20	=20	=20	=20	=20	=20	=20
8F\L	.	1ryy	8ff\L	.	1ryy	8a\	-bis	1ryy	2r	.
8F\	.	.	16aa\L	.	.	16ff\LL	Tur-	.	.	.
.	.	.	16gg\JJ	.	.	16ee\JJ	.	.	.	.
8C\	.	.	8ff\L	.	.	8dd\	-ris	.	.	.
8C\J	.	.	8ee\J	.	.	8cc\	e-	.	.	.
8G\L	.	.	8ee\L	.	.	16cc\	-bur-	.	4r	.
.	.	.	.	.	.	16bn\	-ne-	.	.	.
8G\	.	.	8dd\J	.	.	8b\	-a	.	.	.
!	!	!	!	!	!	!LO:LB:g=original	!	!	!LO:TX:a:t=P:p=pia:global:problem	!LO:DY:a
8G\	.	.	16dd\KL	.	.	16ff\	o-	.	8g\L	p
.	.	.	8cc\	.	.	8ee\	.	.	.	.
8G\J	.	.	.	.	.	.	.	.	8g\J	.
.	.	.	16bn\Jk	.	.	16dd\	-ra	.	.	.
!LO:LB:g=original	!	!	!	!	!	!	!	!	!	!
=21	=21	=21	=21	=21	=21	=21	=21	=21	=21	=21
8G\L	.	1ryy	8cc\L	.	1ryy	16ee\LL	o-	1ryy	8g\L	.
.	.	.	.	.	.	16ff\JJ	.	.	.	.
8G\	.	.	16dd\L	.	.	8gg\	-ra	.	8g\	.
.	.	.	16ee\JJ	.	.	.	.	.	.	.
8G\	.	.	16dd\KL	.	.	16ff\	pro	.	8g\	.
.	.	.	8cc\	.	.	8ee\	no-	.	.	.
8G\J	.	.	.	.	.	.	.	.	8g\J	.
!	!	!	!LO:SIC:s=16bn	!	!	!	!	!	!	!
.	.	.	16b-\Jk	.	.	16dd\	.	.	.	.
8G\L	.	.	16cc\LL	.	.	16ee\LL	.	.	8g\L	.
.	.	.	16dd\J	.	.	16ff\JJ	.	.	.	.
8G\	.	.	8ee\J	.	.	8gg\	-bis	.	8g\J	.
8F\	.	.	4r	.	.	16aa\KL	o-	.	4r	.
.	.	.	.	.	.	8.ff\J	.	.	.	.
8D\J	.	.	.	.	.	.	.	.	.	.
=22	=22	=22	=22	=22	=22	=22	=22	=22	=22	=22
!LO:TX:a:t=P:problem=mixed beam	!	!	!	!	!	!	!	!	!LO:TX:a:t=1 (z łukiem)	!
8E\L	.	1ryy	1r	.	1ryy	16gg\LL	-ra	1ryy	1r	.
.	.	.	.	.	.	16ee\JJ	.	.	.	.
8F\	.	.	.	.	.	16dd\LL	pro	.	.	.
.	.	.	.	.	.	16cc\JJ	.	.	.	.
.	.	.	.	.	.	8qqcc/	.	.	.	.
8G\	.	.	.	.	.	4bn\	no-	.	.	.
8GG/J	.	.	.	.	.	.	.	.	.	.
8C\L	.	.	.	.	.	4cc\	-bis	.	.	.
8E\	.	.	.	.	.	.	.	.	.	.
8F\	.	.	.	.	.	16aa\KL	o-	.	.	.
.	.	.	.	.	.	8.ff\J	.	.	.	.
8D\J	.	.	.	.	.	.	.	.	.	.
=23	=23	=23	=23	=23	=23	=23	=23	=23	=23	=23
!LO:TX:a:t=P:problem=mixed beam	!	!	!	!	!	!	!	!	!	!
8E/L	.	1ryy	2r	.	1ryy	16gg\LL	-ra	1ryy	2r	.
.	.	.	.	.	.	16ee\JJ	.	.	.	.
8F/	.	.	.	.	.	16dd\LL	pro	.	.	.
.	.	.	.	.	.	16cc\JJ	.	.	.	.
8G/	.	.	.	.	.	4bnm\	no-	.	.	.
8GG/J	.	.	.	.	.	.	.	.	.	.
8C\L	.	.	4r	.	.	4cc\	-bis	.	4r	.
8D\	.	.	.	.	.	.	.	.	.	.
8E\	.	.	8r	.	.	4r	.	.	8r	.
!	!	!	!LO:TX:a:t=P:f=for:problem	!LO:DY:a	!	!	!	!	!	!
8C\J	.	.	8ee\	f	.	.	.	.	8cc\	.
=24	=24	=24	=24	=24	=24	=24	=24	=24	=24	=24
!LO:TX:a:t=P:f=for:problem	!LO:DY:a	!	!	!	!	!	!	!	!	!
8G\L	f	1ryy	8dd\L	.	1ryy	0r	.	1ryy	16bX\LL	.
.	.	.	.	.	.	.	.	.	16g\	.
8G\	.	.	8ee\	.	.	.	.	.	16cc\	.
.	.	.	.	.	.	.	.	.	16g\JJ	.
8G\	.	.	8ff\	.	.	.	.	.	16dd\LL	.
.	.	.	.	.	.	.	.	.	16g\	.
8G\J	.	.	8ee\J	.	.	.	.	.	16cc\	.
*	*	*	*	*	*	*	*	*	*custos:f	*
.	.	.	.	.	.	.	.	.	16g\JJ	.
!	!	!	!	!	!	!	!	!	!LO:LB:g=original	!
8G\L	.	.	8ee\L	.	.	.	.	.	8cc\L	.
!	!	!	!	!	!	!	!	!	!LO:TX:a:t=P:problem=krzyżyk przy nucie	!
8G\	.	.	8dd\J	.	.	.	.	.	8b\J	.
8G\	.	.	8r	.	.	.	.	.	8r	.
8G\J	.	.	8ee\	.	.	.	.	.	8cc\	.
=25	=25	=25	=25	=25	=25	=25	=25	=25	=25	=25
8G\L	.	1ryy	8dd\L	.	1ryy	.	.	1ryy	16bX\LL	.
.	.	.	.	.	.	.	.	.	16g\	.
8G\	.	.	8ee\	.	.	.	.	.	16cc\	.
.	.	.	.	.	.	.	.	.	16g\JJ	.
8G\	.	.	8ff\	.	.	.	.	.	16dd\LL	.
.	.	.	.	.	.	.	.	.	16g\	.
8G\J	.	.	8ee\J	.	.	.	.	.	16cc\	.
.	.	.	.	.	.	.	.	.	16g\JJ	.
8G\L	.	.	8ee\L	.	.	.	.	.	8cc\L	.
*	*	*	*custos	*	*	*	*	*	*	*
!	!	!	!	!	!	!	!	!	!LO:TX:a:t=P:problem=krzyżyk przy nucie	!
8G\J	.	.	8dd\J	.	.	.	.	.	8bX\J	.
!	!	!	!LO:LB:g=original	!	!	!	!	!	!	!
8BBn/L	.	.	4ff\	.	.	.	.	.	4dd\	.
8GG/J	.	.	.	.	.	.	.	.	.	.
=26	=26	=26	=26	=26	=26	=26	=26	=26	=26	=26
!LO:TX:a:t=P:problem=mixed beam	!	!	!	!	!	!	!	!	!LO:TX:a:t=P:problem=mixed beam	!
8C\L	.	1ryy	24ee\LL	.	1ryy	1r	.	1ryy	8cc\L	.
.	.	.	24gg\	.	.	.	.	.	.	.
.	.	.	24ff\JJ	.	.	.	.	.	.	.
8E\	.	.	24ee\LL	.	.	.	.	.	8c/J	.
.	.	.	24dd\	.	.	.	.	.	.	.
.	.	.	24cc\JJ	.	.	.	.	.	.	.
8G\	.	.	4ddM\	.	.	.	.	.	8g\L	.
8GG/J	.	.	.	.	.	.	.	.	8g\J	.
8C/L	.	.	8cc\L	.	.	.	.	.	8c/L	.
16C/L	.	.	16ee\L	.	.	.	.	.	16c/L	.
16C/JJ	.	.	16ee\JJ	.	.	.	.	.	16c/JJ	.
4C/	.	.	4eem\	.	.	.	.	.	4c/	.
=27	=27	=27	=27	=27	=27	=27	=27	=27	=27	=27
!LO:TX:a:t=P:problem=mixed beam	!LO:DY:a	!	!	!	!	!	!	!	!LO:TX:a:t=5	!
!	!	!	!	!	!	!	!	!	!LO:N:vis=0	!
8C\L	p	1ryy	8ee\	.	1ryy	8gg\	Do-	1ryy	00r	.
8C\	.	.	4ee\	.	.	4gg\	-mus	.	.	.
8G\	.	.	.	.	.	.	.	.	.	.
8GG/J	.	.	8dd\	.	.	8ff\	au-	.	.	.
*custos:C	*	*	*	*	*	*	*	*	*	*
!LO:TX:a:t=P:problem=mixed beam	!	!	!	!	!	!LO:LB:g=original	!	!	!	!
!LO:LB:g=original	!	!	!	!	!	!	!	!	!	!
8C\L	.	.	8cc\L	.	.	8ee\	-re-	.	.	.
8C\	.	.	16dd\L	.	.	8dd\	-a	.	.	.
.	.	.	16ee\JJ	.	.	.	.	.	.	.
!	!	!	!	!	!	!LO:TX:a:t=P:problem=zbędna kropka przy ósemce	!	!	!	!
!	!	!	!	!	!	!LO:N:vis=8.	!	!	!	!
8G\	.	.	8ee\L	.	.	8gg\	Fe-	.	.	.
8GG/J	.	.	8dd\J	.	.	16ff\	-de-	.	.	.
.	.	.	.	.	.	16ff\	-ris	.	.	.
=28	=28	=28	=28	=28	=28	=28	=28	=28	=28	=28
8C/L	.	1ryy	16cc\LL	.	1ryy	16ee\LL	ar-	1ryy	.	.
.	.	.	16dd\J	.	.	16dd\JJ	.	.	.	.
8C/	.	.	8ee\J	.	.	8cc\	-ca	.	.	.
8C/	.	.	4ff\	.	.	4a\	Ja-	.	.	.
8C/J	.	.	.	.	.	.	.	.	.	.
!LO:TX:a:t=P:problem=mixed beam	!	!	!	!	!	!	!	!	!	!
8C\L	.	.	16ee\LL	.	.	16g\LL	.	.	.	.
.	.	.	16cc\	.	.	16ee\JJ	.	.	.	.
8F\	.	.	16bn\	.	.	16dd\	-nu-	.	.	.
.	.	.	16a\JJ	.	.	16cc\	-a	.	.	.
8G\	.	.	16g/LL	.	.	16bn\LL	cae-	.	.	.
.	.	.	16f/	.	.	16a\	.	.	.	.
8GG/J	.	.	16e/	.	.	16g\	.	.	.	.
.	.	.	16d/JJ	.	.	16f\JJ	.	.	.	.
=29	=29	=29	=29	=29	=29	=29	=29	=29	=29	=29
!	!	!	!LO:TX:a:t=P:problem=mixed beam	!	!	!	!	!	!	!
4C/	.	1ryy	8c/L	.	1ryy	8e/	-li	1ryy	.	.
.	.	.	8cc\J	.	.	8ee\	o-	.	.	.
*	*	*	*	*	*	*Xtuplet	*	*	*	*
!	!	!	!	!	!	!LO:TX:a:t=P:problem=triola nieoznaczona	!	!	!	!
8r	.	.	24cc\LL	.	.	24ee\LL	-ra	.	.	.
.	.	.	24dd\	.	.	24ff\	.	.	.	.
.	.	.	24ee\JJ	.	.	24gg\JJ	.	.	.	.
!	!	!	!	!	!	!	!LO:SIC:l:s=pro	!	!	!
8C/	.	.	16dd\LL	.	.	16ff\LL	por	.	.	.
.	.	.	16cc\JJ	.	.	16ee\JJ	.	.	.	.
!LO:TX:a:t=P:problem=mixed beam	!	!	!	!	!	!	!	!	!	!
8G\L	.	.	8cc\L	.	.	8ee\	no-	.	.	.
8GG/	.	.	8bn\J	.	.	8dd\	-bis	.	.	.
8C/	.	.	(16aa\LL	.	.	(16ff\LL	o-	.	.	.
.	.	.	16gg\	.	.	16ee\	.	.	.	.
8C/J	.	.	16gg\	.	.	16ee\	.	.	.	.
.	.	.	16ff\JJ)	.	.	16dd\JJ)	.	.	.	.
=30	=30	=30	=30	=30	=30	=30	=30	=30	=30	=30
!LO:TX:a:t=P:problem=mixed beam	!	!	!	!	!	!	!	!	!	!
8C/L	.	1ryy	(16gg\LL	.	1ryy	(16ee\LL	.	1ryy	.	.
.	.	.	16ff\	.	.	16dd\	.	.	.	.
8C/	.	.	16ff\	.	.	16dd\	.	.	.	.
.	.	.	16ee\JJ)	.	.	16cc\JJ)	.	.	.	.
8G\	.	.	(16ff\LL	.	.	(16dd\LL	.	.	.	.
.	.	.	16ee\	.	.	16cc\	.	.	.	.
8GG/J	.	.	16ee\	.	.	16cc\	.	.	.	.
!	!	!	!	!	!	!LO:SIC:s=16bn	!	!	!	!
.	.	.	16dd\JJ)	.	.	16b-\JJ)	.	.	.	.
!	!	!	!LO:LB:g=original	!	!	!	!	!	!	!
8C/L	.	.	4ee\	.	.	4ccM\	-ra	.	.	.
8C/	.	.	.	.	.	.	.	.	.	.
8C/	.	.	(16aa\LL	.	.	(16ff\LL	o-	.	.	.
.	.	.	16gg\	.	.	16ee\	.	.	.	.
8C/J	.	.	16gg\	.	.	16ee\	.	.	.	.
.	.	.	16ff\JJ)	.	.	16dd\JJ)	.	.	.	.
!	!	!	!	!	!	!LO:LB:g=original	!	!	!	!
=31	=31	=31	=31	=31	=31	=31	=31	=31	=31	=31
!LO:TX:a:t=P:problem=mixed beam	!	!	!	!	!	!	!	!	!	!
8C/L	.	1ryy	(16gg\LL	.	1ryy	(16ee\LL	.	1ryy	1r	.
.	.	.	16ff\	.	.	16dd\	.	.	.	.
8C/	.	.	16ff\	.	.	16dd\	.	.	.	.
.	.	.	16ee\JJ)	.	.	16cc\JJ)	.	.	.	.
8G\	.	.	(16ff\LL	.	.	(16dd\LL	.	.	.	.
.	.	.	16ee\	.	.	16cc\	.	.	.	.
8GG/J	.	.	16ee\	.	.	16cc\	.	.	.	.
.	.	.	16dd\JJ)	.	.	16bn\JJ)	.	.	.	.
4D/	.	.	8ee`\L	.	.	8cc\	-ra	.	.	.
!	!	!	!	!	!	!	!LO:SIC:l:s=pro	!	!	!
.	.	.	(8aa\	.	.	4ff\	por	.	.	.
8r	.	.	8gg\	.	.	.	.	.	.	.
!	!	!	!	!	!	!LO:SIC:o=8ee	!	!	!	!
8F\	.	.	8ff\J)	.	.	16ee\LL	no-	.	.	.
!	!	!	!	!	!	!LO:SIC:o=8dd	!	!	!	!
.	.	.	.	.	.	16dd\JJ	.	.	.	.
=32	=32	=32	=32	=32	=32	=32	=32	=32	=32	=32
!LO:TX:a:t=P:problem=mixed beam	!	!	!	!	!	!	!	!	!	!
8G\L	.	1ryy	4ee\	.	1ryy	4cc\	.	1ryy	2r	.
8G\	.	.	.	.	.	.	.	.	.	.
8GG/	.	.	4ddM\	.	.	4dd\	.	.	.	.
8GG/J	.	.	.	.	.	.	.	.	.	.
8C/L	.	.	4cc\	.	.	4cc\	-bis	.	4r	.
8C/	.	.	.	.	.	.	.	.	.	.
!	!	!	!	!	!	!	!	!	!	!LO:DY:a
8C/	.	.	4r	.	.	4ee\	stel-	.	8g\L	p
8C/J	.	.	.	.	.	.	.	.	8c\J	.
=33	=33	=33	=33	=33	=33	=33	=33	=33	=33	=33
4F\	.	1ryy	1r	.	1ryy	8ff\	-la	1ryy	8a\L	.
.	.	.	.	.	.	(16ee\LL	ma-	.	16g\L	.
.	.	.	.	.	.	16ff\JJ)	.	.	16a\JJ	.
8r	.	.	.	.	.	8gg\	.	.	8b-\L	.
8F\	.	.	.	.	.	8ff\	-tu-	.	[8a\J	.
!LO:TX:a:t=P:problem=mixed beam	!	!	!	!	!	!	!	!	!LO:TX:a:t=P:problem=mixed beam	!
8c\L	.	.	.	.	.	8ff\	-ti-	.	8a\L]	.
8C/	.	.	.	.	.	8ee\	-na	.	8g\	.
8C/	.	.	.	.	.	4ee\	stel-	.	8g\	.
8C/J	.	.	.	.	.	.	.	.	8c/J	.
!LO:PB:g=original	!	!	!	!	!	!	!	!	!	!
=34	=34	=34	=34	=34	=34	=34	=34	=34	=34	=34
4F\	.	1ryy	2r	.	1ryy	8ff\	-la	1ryy	8a\L	.
.	.	.	.	.	.	(16ee\LL	ma-	.	16g\L	.
.	.	.	.	.	.	16ff\JJ)	.	.	16a\JJ	.
8r	.	.	.	.	.	8gg\	.	.	8b-\L	.
8F\	.	.	.	.	.	8ff\	-tu-	.	8a\J	.
!LO:TX:a:t=P:problem=mixed beam	!	!	!	!	!	!	!	!	!	!
8c\L	.	.	4r	.	.	8ff\	-ti-	.	8a\L	.
8C/J	.	.	.	.	.	8ee\	-na	.	8g\J	.
8F\L	.	.	4bb-\	.	.	4dd\	o-	.	4r	.
8F\J	.	.	.	.	.	.	.	.	.	.
=35	=35	=35	=35	=35	=35	=35	=35	=35	=35	=35
!LO:TX:a:t=P:problem=mixed beam	!	!	!	!	!	!	!	!	!	!
8F\L	.	1ryy	16aa\LL	.	1ryy	16cc\LL	.	1ryy	0r	.
.	.	.	16ff\	.	.	16a\	.	.	.	.
8F\	.	.	16gg\	.	.	16b-\	.	.	.	.
.	.	.	16aa\JJ	.	.	16cc\JJ	.	.	.	.
8C/	.	.	16gg\LL	.	.	16b-\LL	.	.	.	.
.	.	.	16ee\	.	.	16g\	.	.	.	.
8C/J	.	.	16ff\	.	.	16a\	.	.	.	.
*	*	*	*	*	*	*custos:a	*	*	*	*
.	.	.	16gg\JJ	.	.	16b-\JJ	.	.	.	.
!	!	!	!	!	!	!LO:LB:g=original	!	!	!	!
8F\L	.	.	4ff\	.	.	4a\	-ra	.	.	.
8F\	.	.	.	.	.	.	.	.	.	.
8F\	.	.	4bb-\	.	.	4dd\	o-	.	.	.
8F\J	.	.	.	.	.	.	.	.	.	.
=36	=36	=36	=36	=36	=36	=36	=36	=36	=36	=36
!LO:TX:a:t=P:problem=mixed beam	!	!	!	!	!	!	!	!	!	!
8F\L	.	1ryy	16aa\LL	.	1ryy	16cc\LL	.	1ryy	.	.
.	.	.	16ff\	.	.	16a\	.	.	.	.
8F\	.	.	16gg\	.	.	16b-\	.	.	.	.
.	.	.	16aa\JJ	.	.	16cc\JJ	.	.	.	.
8C/	.	.	16gg\LL	.	.	16b-\LL	.	.	.	.
.	.	.	16ee\	.	.	16g\	.	.	.	.
8C/J	.	.	16ff\	.	.	16a\	.	.	.	.
.	.	.	16gg\JJ	.	.	16b-\JJ	.	.	.	.
8F\L	.	.	4ff\	.	.	8a\	-ra	.	.	.
!	!	!	!	!	!	!	!LO:SIC:l:s=pro	!	!	!
8G\	.	.	.	.	.	16ff\LL	por	.	.	.
.	.	.	.	.	.	16dd\JJ	.	.	.	.
8A\	.	.	4r	.	.	8cc\	no	.	.	.
!	!	!	!	!	!	!LO:TX:a:t=P:problem=brak sylaby "bis"	!	!	!	!
8B-\J	.	.	.	.	.	8b-\	.	.	.	.
=37	=37	=37	=37	=37	=37	=37	=37	=37	=37	=37
!LO:TX:a:t=P:problem=mixed beam	!	!	!LO:TX:a:t=2	!	!	!LO:TX:a:t=P:problem=klamra łukowa	!	!	!LO:TX:a:t=Da Capo Finał	!
!	!	!	!LO:TX:a:t=P:problem=klamra łukowa	!	!	!	!	!	!	!
8c\L	.	1ryy	0r	.	1ryy	(12a\L	no-	1ryy	1r	.
.	.	.	.	.	.	12g\	.	.	.	.
8c\	.	.	.	.	.	.	.	.	.	.
.	.	.	.	.	.	12f\J)	.	.	.	.
8C/	.	.	.	.	.	4gM\	.	.	.	.
8C/J	.	.	.	.	.	.	.	.	.	.
!LO:TX:a:t=P:problem=mixed beam	!	!	!	!	!	!	!	!	!	!
8F\L	.	.	.	.	.	8f/	-bis	.	.	.
8B-\	.	.	.	.	.	16ff\LL	pro	.	.	.
.	.	.	.	.	.	16dd\JJ	.	.	.	.
8c\	.	.	.	.	.	16cc\LL	no-	.	.	.
.	.	.	.	.	.	16b-\	.	.	.	.
8C/J	.	.	.	.	.	16a\	.	.	.	.
.	.	.	.	.	.	16g\JJ	.	.	.	.
=38	=38	=38	=38	=38	=38	=38	=38	=38	=38	=38
!LO:TX:a:t=P:problem=incipit da capo	!	!	!	!	!	!	!	!	!	!
4F\	.	1ryy	.	.	1ryy	4f/	-bis	1ryy	1ryy	.
8r	.	.	.	.	.	4r	.	.	.	.
8F\	.	.	.	.	.	.	.	.	.	.
!LO:TX:a:t=Da Capo ad Finał	!	!	!	!	!	!	!	!	!	!
2ryy	.	.	.	.	.	2r	.	.	.	.
!	!	!	!LO:PB:g=original	!	!	!	!	!	!	!
=39	=39	=39	=39	=39	=39	=39	=39	=39	=39	=39
!	!	!	!LO:TX:a:t=P:problem=rozpisane da capo	!	!	!	!	!	!	!
1ryy	.	1ryy	8ff\L	.	1ryy	00r	.	1ryy	1ryy	.
.	.	.	8cc\J	.	.	.	.	.	.	.
.	.	.	16ff\LL	.	.	.	.	.	.	.
.	.	.	16aa\	.	.	.	.	.	.	.
.	.	.	16gg\	.	.	.	.	.	.	.
.	.	.	16ff\JJ	.	.	.	.	.	.	.
.	.	.	8gg\L	.	.	.	.	.	.	.
.	.	.	8cc\J	.	.	.	.	.	.	.
.	.	.	16gg\LL	.	.	.	.	.	.	.
.	.	.	16bb-\	.	.	.	.	.	.	.
.	.	.	16aa\	.	.	.	.	.	.	.
.	.	.	16gg\JJ	.	.	.	.	.	.	.
=40	=40	=40	=40	=40	=40	=40	=40	=40	=40	=40
1ryy	.	1ryy	4ff\	.	1ryy	.	.	1ryy	1ryy	.
.	.	.	4r	.	.	.	.	.	.	.
.	.	.	8r	.	.	.	.	.	.	.
.	.	.	(8bb-\L	.	.	.	.	.	.	.
.	.	.	8aa\	.	.	.	.	.	.	.
.	.	.	8gg\J)	.	.	.	.	.	.	.
=41	=41	=41	=41	=41	=41	=41	=41	=41	=41	=41
!	!	!	!LO:TX:a:t=P:problem=mixed beam	!	!	!	!	!	!	!
1ryy	.	1ryy	16ff\LL	.	1ryy	.	.	1ryy	1ryy	.
.	.	.	16f/	.	.	.	.	.	.	.
.	.	.	16g/	.	.	.	.	.	.	.
.	.	.	16a/JJ	.	.	.	.	.	.	.
.	.	.	16b-\LL	.	.	.	.	.	.	.
.	.	.	16cc\	.	.	.	.	.	.	.
.	.	.	16dd\	.	.	.	.	.	.	.
.	.	.	16ee\JJ	.	.	.	.	.	.	.
.	.	.	8ff\L	.	.	.	.	.	.	.
.	.	.	(8dd\	.	.	.	.	.	.	.
.	.	.	8cc\	.	.	.	.	.	.	.
.	.	.	8b-\J)	.	.	.	.	.	.	.
=42	=42	=42	=42	=42	=42	=42	=42	=42	=42	=42
.	.	.	8qqb-/	.	.	.	.	.	.	.
1ryy	.	1ryy	4a/	.	1ryy	.	.	1ryy	1ryy	.
.	.	.	8r	.	.	.	.	.	.	.
.	.	.	8ff\	.	.	.	.	.	.	.
.	.	.	8ee\L	.	.	.	.	.	.	.
.	.	.	8ff\	.	.	.	.	.	.	.
.	.	.	8gg\	.	.	.	.	.	.	.
.	.	.	8ff\J	.	.	.	.	.	.	.
=43	=43	=43	=43	=43	=43	=43	=43	=43	=43	=43
1ryy	.	1ryy	8ee\L	.	1ryy	00r	.	1ryy	1ryy	.
.	.	.	8ff\	.	.	.	.	.	.	.
.	.	.	8gg\	.	.	.	.	.	.	.
.	.	.	8ff\J	.	.	.	.	.	.	.
.	.	.	8ff\L	.	.	.	.	.	.	.
.	.	.	8ee\J	.	.	.	.	.	.	.
.	.	.	8r	.	.	.	.	.	.	.
.	.	.	8aa\	.	.	.	.	.	.	.
=44	=44	=44	=44	=44	=44	=44	=44	=44	=44	=44
1ryy	.	1ryy	16gg\LL	.	1ryy	.	.	1ryy	1ryy	.
.	.	.	16cc\	.	.	.	.	.	.	.
.	.	.	16aa\	.	.	.	.	.	.	.
.	.	.	16cc\JJ	.	.	.	.	.	.	.
.	.	.	16bb-\LL	.	.	.	.	.	.	.
.	.	.	16cc\	.	.	.	.	.	.	.
.	.	.	16aa\	.	.	.	.	.	.	.
.	.	.	16cc\JJ	.	.	.	.	.	.	.
.	.	.	16gg\LL	.	.	.	.	.	.	.
.	.	.	16cc\	.	.	.	.	.	.	.
.	.	.	16aa\	.	.	.	.	.	.	.
.	.	.	16cc\JJ	.	.	.	.	.	.	.
.	.	.	16bb-\LL	.	.	.	.	.	.	.
.	.	.	16cc\	.	.	.	.	.	.	.
.	.	.	16aa\	.	.	.	.	.	.	.
.	.	.	16cc\JJ	.	.	.	.	.	.	.
!	!	!	!LO:LB:g=original	!	!	!	!	!	!	!
=45	=45	=45	=45	=45	=45	=45	=45	=45	=45	=45
1ryy	.	1ryy	8aa\L	.	1ryy	.	.	1ryy	1ryy	.
.	.	.	8gg\J	.	.	.	.	.	.	.
.	.	.	8r	.	.	.	.	.	.	.
.	.	.	8gg\	.	.	.	.	.	.	.
.	.	.	8qqff/	.	.	.	.	.	.	.
.	.	.	4ee\	.	.	.	.	.	.	.
.	.	.	(16gg\LL	.	.	.	.	.	.	.
.	.	.	16ff\	.	.	.	.	.	.	.
.	.	.	16ee\	.	.	.	.	.	.	.
.	.	.	16dd\JJ)	.	.	.	.	.	.	.
=46	=46	=46	=46	=46	=46	=46	=46	=46	=46	=46
.	.	.	8qqff/	.	.	.	.	.	.	.
1ryy	.	1ryy	4ee\	.	1ryy	.	.	1ryy	1ryy	.
.	.	.	8r	.	.	.	.	.	.	.
.	.	.	8ff\	.	.	.	.	.	.	.
.	.	.	8qqff/	.	.	.	.	.	.	.
.	.	.	4ee\	.	.	.	.	.	.	.
.	.	.	(16gg\LL	.	.	.	.	.	.	.
.	.	.	16ff\	.	.	.	.	.	.	.
.	.	.	16ee\	.	.	.	.	.	.	.
.	.	.	16dd\JJ)	.	.	.	.	.	.	.
=47	=47	=47	=47	=47	=47	=47	=47	=47	=47	=47
.	.	.	8qqdd/	.	.	.	.	.	.	.
1ryy	.	1ryy	4ee\	.	1ryy	00r	.	1ryy	1ryy	.
.	.	.	8r	.	.	.	.	.	.	.
.	.	.	8aa\	.	.	.	.	.	.	.
.	.	.	24aa\LL	.	.	.	.	.	.	.
.	.	.	24gg\	.	.	.	.	.	.	.
.	.	.	24ff\JJ	.	.	.	.	.	.	.
.	.	.	4aa\	.	.	.	.	.	.	.
.	.	.	8bb-\	.	.	.	.	.	.	.
=48	=48	=48	=48	=48	=48	=48	=48	=48	=48	=48
1ryy	.	1ryy	24aa\LL	.	1ryy	.	.	1ryy	1ryy	.
.	.	.	24gg\	.	.	.	.	.	.	.
.	.	.	24ff\JJ	.	.	.	.	.	.	.
.	.	.	4aa\	.	.	.	.	.	.	.
.	.	.	8gg\	.	.	.	.	.	.	.
.	.	.	4ff\	.	.	.	.	.	.	.
.	.	.	4ee\	.	.	.	.	.	.	.
=49	=49	=49	=49	=49	=49	=49	=49	=49	=49	=49
1ryy	.	1ryy	8ff\L	.	1ryy	.	.	1ryy	1ryy	.
.	.	.	8gg\	.	.	.	.	.	.	.
.	.	.	8gg\	.	.	.	.	.	.	.
.	.	.	8gg\J	.	.	.	.	.	.	.
.	.	.	8gg\L	.	.	.	.	.	.	.
.	.	.	8gg\	.	.	.	.	.	.	.
.	.	.	8gg\	.	.	.	.	.	.	.
.	.	.	8gg\J	.	.	.	.	.	.	.
=50	=50	=50	=50	=50	=50	=50	=50	=50	=50	=50
1ryy	.	1ryy	4gg\	.	1ryy	.	.	1ryy	1ryy	.
.	.	.	8r	.	.	.	.	.	.	.
.	.	.	8gg\	.	.	.	.	.	.	.
.	.	.	4ff\	.	.	.	.	.	.	.
.	.	.	4eem\	.	.	.	.	.	.	.
=51	=51	=51	=51	=51	=51	=51	=51	=51	=51	=51
1ryy	.	1ryy	4ff\	.	1ryy	1r	.	1ryy	1ryy	.
.	.	.	4r	.	.	.	.	.	.	.
.	.	.	2r	.	.	.	.	.	.	.
==	==	==	==	==	==	==	==	==	==	==
*-	*-	*-	*-	*-	*-	*-	*-	*-	*-	*-
!!!system-decoration: [(g1)][(g2)][(g3)][(g4)]
!!!RDF**dynam: p=pia
!!!ENC: Anna Matuszewska
!!!END: 2020-10-24
!!!ENC: Kamil Watkowski
!!!END: 2020-05-21
!!!YEC: Copyright 2022 Narodowy Instytut Fryderyka Chopina (https://polishscores.org)
!!!YEM: License CC-BY-4.0 (https://creativecommons.org/licenses/by/4.0)
